icons/folder_type_cli.svg

<svg xmlns="http://www.w3.org/2000/svg" viewBox="0 0 32 32"><path d="M27.5 5.5h-9.3l-2.1 4.2H4.4v16.8h25.2v-21Zm0 4.2h-8.2l1.1-2.1h7.1Z" style="fill:#686868"/><path d="M31 14v17H10V14Z" style="fill:#d9b400"/><path d="M10.5 14.5v16h20v-16Zm19.04 15.093h-18.1V15.407h18.12v14.186Zm-15.58-5.066.68.622L18.5 21.7l-3.92-3.484-.68.6 3.24 2.88Zm4.54 1.031h6v.711h-6Z"/></svg>

<svg xmlns="http://www.w3.org/2000/svg" viewBox="0 0 32 32"><title>folder_type_cli</title><path d="M27.5,5.5H18.2L16.1,9.7H4.4V26.5H29.6V5.5Zm0,4.2H19.3l1.1-2.1h7.1Z" style="fill:#686868"/><path d="M31,14V31H10V14Z" style="fill:#d9b400"/><path d="M10.5,14.5v16h20v-16ZM29.54,29.593H11.44V15.407H29.56V29.593ZM13.96,24.527l.68.622L18.5,21.7l-3.92-3.484-.68.6,3.24,2.88Zm4.54,1.031h6v.711h-6Z"/></svg>
